X:58
T: MAIKAEFER FLIEG
N: K0798A
O: Europa, Mitteleuropa, Deutschland, Thueringen; Vogtland
R: Kinder -, Tier - Lied
M: 2/4
L: 1/16
K: G
 | d4B2A2 | G4z2
D2 | G3AB2c2 | d4z2
d2 | B2d2e2d2 | d2c2c4
c2B2A2c2 | e2d2B4
d4B2A2 | G4z4

